app/assets/images/heroicons/outline/chat-bubble-left.svg

<svg width="24" height="24" viewBox="0 0 24 24" fill="none" xmlns="http://www.w3.org/2000/svg">
<path d="M2.25 12.7593C2.25 14.3604 3.37341 15.754 4.95746 15.987C6.04357 16.1467 7.14151 16.27 8.25 16.3556V21L12.326 16.924C12.6017 16.6483 12.9738 16.4919 13.3635 16.481C15.2869 16.4274 17.1821 16.2606 19.0425 15.9871C20.6266 15.7542 21.75 14.3606 21.75 12.7595V6.74056C21.75 5.13946 20.6266 3.74583 19.0425 3.51293C16.744 3.17501 14.3926 3 12.0003 3C9.60776 3 7.25612 3.17504 4.95747 3.51302C3.37342 3.74593 2.25 5.13956 2.25 6.74064V12.7593Z" stroke="#0F172A" stroke-width="1.5" stroke-linecap="round" stroke-linejoin="round"/>
</svg>

<svg xmlns="http://www.w3.org/2000/svg" fill="none" viewBox="0 0 24 24" stroke-width="1.5" stroke="currentColor" aria-hidden="true" data-slot="icon">
  <path stroke-linecap="round" stroke-linejoin="round" d="M2.25 12.76c0 1.6 1.123 2.994 2.707 3.227 1.087.16 2.185.283 3.293.369V21l4.076-4.076a1.526 1.526 0 0 1 1.037-.443 48.282 48.282 0 0 0 5.68-.494c1.584-.233 2.707-1.626 2.707-3.228V6.741c0-1.602-1.123-2.995-2.707-3.228A48.394 48.394 0 0 0 12 3c-2.392 0-4.744.175-7.043.513C3.373 3.746 2.25 5.14 2.25 6.741v6.018Z"/>
</svg>
